enrol/guest/pix/withpassword.svg

<?xml version="1.0" encoding="UTF-8" standalone="no"?>
<!-- Created with Inkscape (http://www.inkscape.org/) -->

<svg
   xmlns:dc="http://purl.org/dc/elements/1.1/"
   xmlns:cc="http://creativecommons.org/ns#"
   xmlns:rdf="http://www.w3.org/1999/02/22-rdf-syntax-ns#"
   xmlns:svg="http://www.w3.org/2000/svg"
   xmlns="http://www.w3.org/2000/svg"
   xmlns:sodipodi="http://sodipodi.sourceforge.net/DTD/sodipodi-0.dtd"
   xmlns:inkscape="http://www.inkscape.org/namespaces/inkscape"
   width="16px"
   height="16px"
   id="svg3069"
   version="1.1"
   inkscape:version="0.48.0 r9654"
   sodipodi:docname="withpassword.svg">
  <defs
     id="defs3071">
</defs>
  <sodipodi:namedview
     id="base"
     pagecolor="#ffffff"
     bordercolor="#666666"
     borderopacity="1.0"
     inkscape:pageopacity="0.0"
     inkscape:pageshadow="2"
     inkscape:zoom="22.197802"
     inkscape:cx="8"
     inkscape:cy="8"
     inkscape:current-layer="layer1"
     showgrid="true"
     inkscape:grid-bbox="true"
     inkscape:document-units="px"
     inkscape:window-width="959"
     inkscape:window-height="677"
     inkscape:window-x="275"
     inkscape:window-y="275"
     inkscape:window-maximized="0" />
  <metadata
     id="metadata3074">
    <rdf:RDF>
      <cc:Work
         rdf:about="">
        <dc:format>image/svg+xml</dc:format>
        <dc:type
           rdf:resource="http://purl.org/dc/dcmitype/StillImage" />
        <dc:title></dc:title>
      </cc:Work>
    </rdf:RDF>
  </metadata>
  <g
     id="layer1"
     inkscape:label="Layer 1"
     inkscape:groupmode="layer">
    <path
       id="path3081"
       d="m 3.4,9.0000003 c 0,0 -1.4,-1.8 -1.4,-3.8 0,-2.9 1.8,-5.2 4,-5.2 2.2,0 4,2.3 4,5.2 0,0.1 0,0.1 0,0.2 -1.1999996,0.8 -2,2.2 -2,3.8 0,0.1 0,0.2 0,0.4 L 4,13.6 V 16 H 0 V 12 L 3.2,10.3 C 3.7,10 3.8,9.5000003 3.4,9.0000003 z M 11.8,13.6 10.4,15 H 10 v 0.4 l -0.5999996,0.6 -0.4,0 H 12 V 13.7 C 11.9,13.6 11.8,13.6 11.8,13.6 z M 16,9.2000003 C 16,11.1 14.4,12.7 12.5,12.7 c -0.4,0 -0.7,-0.1 -1,-0.2 L 10,14 H 9.0000004 v 1 l 0,0 H 8 v 1 l 0,0 H 5 V 14 L 9.1000004,9.9000003 c -0.1,-0.3 -0.1,-0.5 -0.1,-0.7 0,-1.9 1.5999996,-3.5 3.4999996,-3.5 1.9,0 3.5,1.5 3.5,3.5 z m -1.5,-1.2 c 0,-0.6 -0.4,-1 -1,-1 -0.6,0 -1,0.4 -1,1 0,0.6 0.4,1 1,1 0.5,0 1,-0.5 1,-1 z"
       style="fill:#ffffff"
       inkscape:connector-curvature="0" />
  </g>
</svg>

<?xml version="1.0" encoding="utf-8"?>
<!-- Generator: Adobe Illustrator 15.1.0, SVG Export Plug-In . SVG Version: 6.00 Build 0)  -->
<!DOCTYPE svg PUBLIC "-//W3C//DTD SVG 1.1//EN" "http://www.w3.org/Graphics/SVG/1.1/DTD/svg11.dtd">
<svg version="1.1" id="Ebene_1" xmlns="http://www.w3.org/2000/svg" xmlns:xlink="http://www.w3.org/1999/xlink" x="0px" y="0px"
	 width="16px" height="16px" viewBox="0 0 16 16" enable-background="new 0 0 16 16" xml:space="preserve">
<path fill="#FFFFFF" d="M3.4,9C3.4,9,2,7.2,2,5.2C2,2.3,3.8,0,6,0s4,2.3,4,5.2c0,0.1,0,0.1,0,0.2C8.8,6.2,8,7.6,8,9.2
	C8,9.3,8,9.4,8,9.6l-4,4V16H0v-4l3.2-1.7C3.7,10,3.8,9.5,3.4,9z M11.8,13.6L10.4,15H10v0.4L9.4,16H9h3v-2.3
	C11.9,13.6,11.8,13.6,11.8,13.6z M16,9.2c0,1.899-1.6,3.5-3.5,3.5c-0.4,0-0.7-0.101-1-0.2L10,14H9v1l0,0H8v1l0,0H5v-2l4.1-4.1
	C9,9.6,9,9.4,9,9.2c0-1.9,1.6-3.5,3.5-3.5S16,7.2,16,9.2z M14.5,8c0-0.6-0.4-1-1-1s-1,0.4-1,1c0,0.6,0.4,1,1,1C14,9,14.5,8.5,14.5,8
	z"/>
</svg>
